material/.icons/material/table-border.svg

<svg xmlns="http://www.w3.org/2000/svg" viewBox="0 0 24 24"><path d="M21 19a1 1 0 01-1 1h-1v-2h2v1m-6 1v-2h2v2h-2m-4 0v-2h2v2h-2m-4 0v-2h2v2H7m-3 0a1 1 0 01-1-1v-1h2v2H4M19 4H5a2 2 0 00-2 2v2h18V6c0-1.11-.89-2-2-2M5 14H3v2h2v-2m0-4H3v2h2v-2m16 0h-2v2h2v-2m0 4h-2v2h2v-2m-10 2v-2h2v2h-2m0-4v-2h2v2h-2"/></svg>

<?xml version="1.0" encoding="UTF-8"?><!DOCTYPE svg PUBLIC "-//W3C//DTD SVG 1.1//EN" "http://www.w3.org/Graphics/SVG/1.1/DTD/svg11.dtd"><svg xmlns="http://www.w3.org/2000/svg" xmlns:xlink="http://www.w3.org/1999/xlink" version="1.1" id="mdi-table-border" width="24" height="24" viewBox="0 0 24 24"><path d="M21,19A1,1 0 0,1 20,20H19V18H21V19M15,20V18H17V20H15M11,20V18H13V20H11M7,20V18H9V20H7M4,20A1,1 0 0,1 3,19V18H5V20H4M19,4H5A2,2 0 0,0 3,6V8H5L11,8H13L19,8H21V6C21,4.89 20.11,4 19,4M5,14H3V16H5V14M5,10H3V12H5V10M21,10H19V12H21V10M21,14H19V16H21V14M11,16V14H13V16H11M11,12V10H13V12H11" /></svg>
